style-guide/assets/wds-icons-comment-tiny.svg

<svg viewBox="0 0 12 12" xmlns="http://www.w3.org/2000/svg">
  <path d="M4.5 2c-.668 0-1.293.26-1.757.731A2.459 2.459 0 0 0 2 4.5c0 1.235.92 2.297 2.141 2.47A1 1 0 0 1 5 7.96v.626l1.293-1.293A.997.997 0 0 1 7 7h.5c.668 0 1.293-.26 1.757-.731.483-.476.743-1.1.743-1.769C10 3.122 8.878 2 7.5 2h-3zM4 12a1 1 0 0 1-1-1V8.739A4.52 4.52 0 0 1 0 4.5c0-1.208.472-2.339 1.329-3.183A4.424 4.424 0 0 1 4.5 0h3C9.981 0 12 2.019 12 4.5a4.432 4.432 0 0 1-1.329 3.183A4.424 4.424 0 0 1 7.5 9h-.086l-2.707 2.707A1 1 0 0 1 4 12z" fill-rule="evenodd"/>
</svg>

<svg xmlns="http://www.w3.org/2000/svg" xmlns:xlink="http://www.w3.org/1999/xlink" width="12" height="12" viewBox="0 0 12 12">
  <defs>
    <path id="comment-a" d="M4.5,2 C3.832,2 3.207,2.26 2.743,2.731 C2.26,3.207 2,3.832 2,4.5 C2,5.735 2.92,6.797 4.141,6.97 C4.633,7.04 5,7.462 5,7.96 L5,8.586 L6.293,7.293 C6.48,7.105 6.735,7 7,7 L7.5,7 C8.168,7 8.793,6.74 9.257,6.269 C9.74,5.793 10,5.169 10,4.5 C10,3.122 8.878,2 7.5,2 L4.5,2 Z M4,12 C3.871,12 3.741,11.976 3.617,11.924 C3.244,11.77 3,11.404 3,11 L3,8.739 C1.241,8.115 0,6.425 0,4.5 C0,3.292 0.472,2.161 1.329,1.317 C2.161,0.472 3.292,0 4.5,0 L7.5,0 C9.981,0 12,2.019 12,4.5 C12,5.709 11.528,6.839 10.671,7.683 C9.839,8.528 8.708,9 7.5,9 L7.414,9 L4.707,11.707 C4.516,11.898 4.26,12 4,12 Z"/>
  </defs>
  <use fill-rule="evenodd" xlink:href="#comment-a"/>
</svg>
